packages/bezier-icons/icons/untag.svg

<svg width="24" height="24" viewBox="0 0 24 24" fill="none" xmlns="http://www.w3.org/2000/svg">
<path fill-rule="evenodd" clip-rule="evenodd" d="M18.1421 15.7279L21.3848 12.4853C21.7598 12.1102 21.9706 11.6015 21.9706 11.0711V4C21.9706 2.89543 21.0751 2 19.9706 2H12.8995C12.3691 2 11.8604 2.21071 11.4853 2.58579L8.24264 5.82843L4.91421 2.5C4.52369 2.10948 3.89053 2.10948 3.5 2.5C3.10948 2.89053 3.10948 3.52369 3.5 3.91421L20.0858 20.5C20.4763 20.8905 21.1095 20.8905 21.5 20.5C21.8905 20.1095 21.8905 19.4763 21.5 19.0858L18.1421 15.7279ZM16.7279 14.3137L19.9706 11.0711L19.9706 4L12.8995 4L9.65685 7.24264L16.7279 14.3137ZM5 11.8995L7.24264 9.65685L5.82843 8.24264L3.58578 10.4853C2.02369 12.0474 2.02369 14.58 3.58578 16.1421L7.82842 20.3848C9.39052 21.9469 11.9232 21.9469 13.4853 20.3848L15.7279 18.1421L14.3137 16.7279L12.0711 18.9706C11.29 19.7516 10.0237 19.7516 9.24264 18.9706L5 14.7279C4.21895 13.9469 4.21895 12.6805 5 11.8995ZM18.4853 7.48523C18.4853 8.59056 17.5906 9.48523 16.4853 9.48523C15.3813 9.48523 14.4853 8.59056 14.4853 7.48523C14.4853 6.3799 15.3813 5.48523 16.4853 5.48523C17.5906 5.48523 18.4853 6.3799 18.4853 7.48523Z" fill="#313234"/>
</svg>

<svg xmlns="http://www.w3.org/2000/svg" width="24" height="24" fill="none" viewBox="0 0 24 24"><path fill="#313234" fill-rule="evenodd" d="m18.142 15.728 3.243-3.243a2 2 0 0 0 .586-1.414V4a2 2 0 0 0-2-2H12.9a2 2 0 0 0-1.415.586L8.243 5.828 4.914 2.5A1 1 0 0 0 3.5 3.914L20.086 20.5a1 1 0 0 0 1.414-1.414zm-1.414-1.414 3.243-3.243V4H12.9L9.657 7.243zM5 11.899l2.243-2.242-1.415-1.414-2.242 2.242a4 4 0 0 0 0 5.657l4.242 4.243a4 4 0 0 0 5.657 0l2.243-2.243-1.414-1.414-2.243 2.243a2 2 0 0 1-2.828 0L5 14.728A2 2 0 0 1 5 11.9m13.485-4.414a1.999 1.999 0 1 1-4 0 2 2 0 1 1 4 0" clip-rule="evenodd"/></svg>
